docs/img/cluster-maintenance.svg

<?xml version="1.0" encoding="UTF-8" standalone="no"?>
<svg
   xmlns:dc="http://purl.org/dc/elements/1.1/"
   xmlns:cc="http://creativecommons.org/ns#"
   xmlns:rdf="http://www.w3.org/1999/02/22-rdf-syntax-ns#"
   xmlns:svg="http://www.w3.org/2000/svg"
   xmlns="http://www.w3.org/2000/svg"
   xmlns:sodipodi="http://sodipodi.sourceforge.net/DTD/sodipodi-0.dtd"
   xmlns:inkscape="http://www.inkscape.org/namespaces/inkscape"
   height="40"
   viewBox="0 0 60 40"
   width="60"
   version="1.1"
   id="svg36"
   sodipodi:docname="cluster-machine.svg"
   inkscape:version="1.0.1 (3bc2e813f5, 2020-09-07)">
  <sodipodi:namedview
     pagecolor="#ffffff"
     bordercolor="#666666"
     borderopacity="1"
     objecttolerance="10"
     gridtolerance="10"
     guidetolerance="10"
     inkscape:pageopacity="0"
     inkscape:pageshadow="2"
     inkscape:window-width="1920"
     inkscape:window-height="1016"
     id="namedview191"
     showgrid="false"
     inkscape:zoom="14.03607"
     inkscape:cx="-3.1156668"
     inkscape:cy="27.264413"
     inkscape:window-x="0"
     inkscape:window-y="0"
     inkscape:window-maximized="1"
     inkscape:current-layer="g1480"
     inkscape:document-rotation="0" />
  <metadata
     id="metadata42">
    <rdf:RDF>
      <cc:Work
         rdf:about="">
        <dc:format>image/svg+xml</dc:format>
        <dc:type
           rdf:resource="http://purl.org/dc/dcmitype/StillImage" />
        <dc:title />
      </cc:Work>
    </rdf:RDF>
  </metadata>
  <defs
     id="defs40">
    <mask
       id="a-1"
       fill="#ffffff">
      <path
         d="M 0,0 H 313.30315 V 159.86486 H 0 Z"
         fill="#ffffff"
         fill-rule="evenodd"
         id="path2-9" />
    </mask>
    <mask
       id="mask865"
       fill="#ffffff">
      <path
         d="M 0,0 H 313.30315 V 159.86486 H 0 Z"
         fill="#ffffff"
         fill-rule="evenodd"
         id="path863" />
    </mask>
  </defs>
  <mask
     id="a"
     fill="#ffffff">
    <path
       d="M 0,0 H 313.30315 V 159.86486 H 0 Z"
       fill="#ffffff"
       fill-rule="evenodd"
       id="path2" />
  </mask>
  <mask
     id="b"
     fill="#ffffff">
    <path
       d="M 0,0 H 313.30315 V 159.86486 H 0 Z"
       fill="#ffffff"
       fill-rule="evenodd"
       id="path5" />
  </mask>
  <g
     id="g1042"
     style="display:inline">
    <g
       id="g994"
       transform="matrix(0.08667043,0,0,0.08667043,54.837532,-43.975856)"
       style="display:inline">
      <path
         id="path990"
         style="fill:#000e44;fill-opacity:1;fill-rule:evenodd;stroke:none;stroke-width:3.14747"
         d="m 56.695351,510.77372 -107.53235,84.40183 -79.398391,-66.27467 61.189259,82.84335 -54.627399,74.39502 72.836531,-52.98696 102.528945,91.04567 -81.03891,-107.53235 z" />
    </g>
    <circle
       style="opacity:1;fill:#ed8c8c;fill-opacity:1;stroke:none;stroke-width:0.308165;stroke-miterlimit:2.5;stroke-opacity:1;stop-color:#000000"
       id="path912"
       cx="16.627409"
       cy="16.633268"
       r="16.433828" />
    <g
       fill="none"
       fill-rule="evenodd"
       transform="matrix(0.15069337,0,0,0.15069337,-6.1976669,-20.880758)"
       id="g1008">
      <g
         transform="matrix(0.92863152,0,0,-0.92863152,9.2718211,454.1644)"
         id="g1006">
        <g
           fill="#0f1689"
           mask="url(#a-1)"
           id="g1002"
           style="fill:#6f0f0c;fill-opacity:1"
           transform="matrix(0.94489362,0,0,0.94489362,8.6962507,2.7018401)">
          <path
             d="m 203.46068,95.687543 c 6.93631,0 12.5593,-14.80922 12.5593,-33.077318 0,-18.268097 -5.62299,-33.077317 -12.5593,-33.077317 -6.93631,0 -12.55931,14.80922 -12.55931,33.077317 0,18.268098 5.62299,33.077318 12.55931,33.077318 z"
             transform="rotate(35,137.93117,151.55002)"
             id="path996"
             style="fill:#6f0f0c;fill-opacity:1" />
          <path
             d="m 30.142322,95.687543 c 6.936311,0 12.559301,-14.80922 12.559301,-33.077318 0,-18.268097 -5.62299,-33.077317 -12.559301,-33.077317 -6.93631,0 -12.559301,14.80922 -12.559301,33.077317 0,18.268098 5.622991,33.077318 12.559301,33.077318 z"
             transform="matrix(-0.81915204,0.57357644,0.57357644,0.81915204,58.084611,47.704768)"
             id="path998"
             style="fill:#6f0f0c;fill-opacity:1" />
          <path
             d="m 116.73282,66.275268 c 6.93631,0 12.5593,-14.80922 12.5593,-33.077318 0,-18.268097 -5.62299,-33.07731673 -12.55931,-33.07731673 -6.93631,0 -12.5593,14.80921973 -12.5593,33.07731673 0,18.268098 5.62299,33.077318 12.55931,33.077318 z"
             transform="matrix(-1,0,0,1,272.62852,53.670762)"
             id="path1000"
             style="fill:#6f0f0c;fill-opacity:1" />
        </g>
        <path
           d="m 251.46701,173.09985 c -20.23008,-33.60997 -56.88957,-56.06791 -98.75578,-56.06791 -40.7208,0 -76.515877,21.2459 -97.058696,53.33459"
           mask="url(#a-1)"
           stroke="#0f1689"
           stroke-width="20"
           id="path1004"
           style="stroke:#6f0c0c;stroke-opacity:1"
           transform="matrix(0.94489362,0,0,0.94489362,8.6962507,2.7018401)" />
      </g>
    </g>
    <g
       id="g1480"
       transform="translate(40)">
      <g
         id="g2224"
         transform="matrix(0.25662311,0,0,0.25662311,-39.587685,-0.39699843)">
        <g
           id="g2223"
           transform="matrix(0.81203863,0,0,0.81203863,11.067422,5.4561889)">
          <path
             d="M 64,61.8 110.5,36.3 64,12.9 17.5,36.3 Z"
             fill="#b7c5ff"
             id="path2218"
             style="fill:#f74039;fill-opacity:1" />
          <path
             d="M 17.5,36.3 17.2,87.6 64,113.1 V 61.8 Z"
             fill="#839afe"
             id="path2220"
             style="fill:#a11611;fill-opacity:1" />
          <path
             d="M 110.5,36.3 110.8,87.6 64,113.1 V 61.8 Z"
             fill="#436afd"
             id="path2222"
             style="fill:#6f0f0c;fill-opacity:1" />
          <path
             d="M 98.841949,81.390424 122.86054,68.218943 98.841949,56.132167 74.823354,68.218943 Z"
             fill="#b7c5ff"
             id="path2202"
             style="fill:#fcb8b5;fill-opacity:1;stroke:#6f0f0c;stroke-width:0.51827;stroke-miterlimit:4;stroke-dasharray:3.10962, 3.10962;stroke-dashoffset:0;stroke-opacity:1" />
          <path
             d="m 74.823354,68.218943 -0.154959,26.49794 24.173554,13.171467 V 81.390424 Z"
             fill="#839afe"
             id="path2204"
             style="fill:#ec4c46;fill-opacity:1;stroke:#6f0f0c;stroke-width:0.51827;stroke-miterlimit:4;stroke-dasharray:3.10962, 3.10962;stroke-dashoffset:0;stroke-opacity:1" />
          <path
             d="m 122.86054,68.218943 0.15497,26.49794 -24.173561,13.171467 V 81.390424 Z"
             fill="#436afd"
             id="path2206"
             style="fill:#b81914;fill-opacity:1;stroke:#6f0f0c;stroke-width:0.51827;stroke-miterlimit:4;stroke-dasharray:3.10962, 3.10962;stroke-dashoffset:0;stroke-opacity:1" />
          <path
             d="M 28.700175,81.390424 52.718766,68.218943 28.700175,56.132167 4.6815806,68.218943 Z"
             fill="#b7c5ff"
             id="path2208"
             style="fill:#fcb8b5;fill-opacity:1;stroke:#6f0f0c;stroke-width:0.51827;stroke-miterlimit:4;stroke-dasharray:3.10962, 3.10962;stroke-dashoffset:0;stroke-opacity:1" />
          <path
             d="M 4.6815806,68.218943 4.5266216,94.716883 28.700175,107.88835 V 81.390424 Z"
             fill="#839afe"
             id="path2210"
             style="fill:#ec4c46;fill-opacity:1;stroke:#6f0f0c;stroke-width:0.51827;stroke-miterlimit:4;stroke-dasharray:3.10962, 3.10962;stroke-dashoffset:0;stroke-opacity:1" />
          <path
             d="m 52.718766,68.218943 0.15497,26.49794 -24.173561,13.171467 V 81.390424 Z"
             fill="#436afd"
             id="path2212"
             style="fill:#b81914;fill-opacity:1;stroke:#6f0f0c;stroke-width:0.51827;stroke-miterlimit:4;stroke-dasharray:3.10962, 3.10962;stroke-dashoffset:0;stroke-opacity:1" />
        </g>
      </g>
    </g>
  </g>
  <g
     transform="matrix(0.95879878,0,0,0.95879878,-871.34292,-378.35028)"
     id="g893" />
</svg>

<?xml version="1.0" encoding="UTF-8"?>
<svg width="60" height="40" version="1.1" viewBox="0 0 60 40" xmlns="http://www.w3.org/2000/svg">
<defs>
<mask id="c" fill="#ffffff">
<path d="m0 0h313.3v159.86h-313.3z" fill="#fff" fill-rule="evenodd"/>
</mask>
</defs>
<mask id="a" fill="#ffffff">
<path d="m0 0h313.3v159.86h-313.3z" fill="#fff" fill-rule="evenodd"/>
</mask>
<mask id="b" fill="#ffffff">
<path d="m0 0h313.3v159.86h-313.3z" fill="#fff" fill-rule="evenodd"/>
</mask>
<g transform="matrix(.08667 0 0 .08667 54.838 -43.976)">
<path d="m56.695 510.77-107.53 84.402-79.398-66.275 61.189 82.843-54.627 74.395 72.837-52.987 102.53 91.046-81.039-107.53z" fill="#000e44" fill-rule="evenodd"/>
</g>
<circle cx="16.627" cy="16.633" r="16.434" fill="#ed8c8c" stop-color="#000000"/>
<g transform="matrix(.15069 0 0 .15069 -6.1977 -20.881)" fill="none" fill-rule="evenodd">
<g transform="matrix(.92863 0 0 -.92863 9.2718 454.16)">
<g transform="matrix(.94489 0 0 .94489 8.6963 2.7018)" fill="#6f0f0c" mask="url(#c)">
<path transform="rotate(35 137.93 151.55)" d="m203.46 95.688c6.9363 0 12.559-14.809 12.559-33.077s-5.623-33.077-12.559-33.077-12.559 14.809-12.559 33.077 5.623 33.077 12.559 33.077z"/>
<path transform="matrix(-.81915 .57358 .57358 .81915 58.085 47.705)" d="m30.142 95.688c6.9363 0 12.559-14.809 12.559-33.077s-5.623-33.077-12.559-33.077c-6.9363 0-12.559 14.809-12.559 33.077s5.623 33.077 12.559 33.077z"/>
<path transform="matrix(-1 0 0 1 272.63 53.671)" d="m116.73 66.275c6.9363 0 12.559-14.809 12.559-33.077s-5.623-33.077-12.559-33.077c-6.9363 0-12.559 14.809-12.559 33.077s5.623 33.077 12.559 33.077z"/>
</g>
<path transform="matrix(.94489 0 0 .94489 8.6963 2.7018)" d="m251.47 173.1c-20.23-33.61-56.89-56.068-98.756-56.068-40.721 0-76.516 21.246-97.059 53.335" mask="url(#c)" stroke="#6f0c0c" stroke-width="20"/>
</g>
</g>
<g transform="translate(40)">
<g transform="matrix(.25662 0 0 .25662 -39.588 -.397)">
<g transform="matrix(.81204 0 0 .81204 11.067 5.4562)" stroke="#6f0f0c" stroke-linecap="square" stroke-linejoin="bevel">
<path d="m64 61.8 46.5-25.5-46.5-23.4-46.5 23.4z" fill="#fcb8b5" stroke-dasharray="7.19819, 7.19819" stroke-width="2.3994"/>
<path d="m17.5 36.3-0.3 51.3 46.8 25.5v-51.3z" fill="#ec4c46" stroke-dasharray="7.1981905, 7.19819049999999994" stroke-width="2.3994"/>
<path d="m110.5 36.3 0.3 51.3-46.8 25.5v-51.3z" fill="#b81914" stroke-dasharray="7.1981905, 7.19819049999999994" stroke-width="2.3994"/>
</g>
</g>
</g>
</svg>
